X: 1
T: the Connactman's Rambles
T: the Connaughtman's Rambles
C: trad. Irish
S: Fiddle Hell Online 2020 handout for Eric Eid-Reiner's piano accompaniment workshop
Z: 2020 John Chambers <jc:trillian.mit.edu>
M: 6/8
L: 1/8
K: D
|:\
"D"FAA dAA | "G"BAB dAG | "D"FAA dfe | dBB "(A)"BAG |\
"D"FAA dAA | "G"BAB def | "Em"gfe "D/F#"f2e | "G"dBB [1 "A"BAG :|2 "A"B2 ||
|: g |\
"Bm"fbb faa | fdf deg | fbb faa | "G"fed "A"e2g |\
"Bm"fbb faa | fdf def | "G"gfe "(D)"f2e | "G"dBB [1 "(A)"B2 :|2 "(A)"BAG |]
